<?xml version="1.0" encoding="UTF-8"?>
<map version="1.10" tiledversion="1.12.2" orientation="isometric" renderorder="right-down" width="24" height="23" tilewidth="64" tileheight="32" infinite="0" nextlayerid="3" nextobjectid="269">
 <properties>
  <property name="Background Animation" value="/server/assets/backgrounds/nebula.animation"/>
  <property name="Background Texture" value="/server/assets/backgrounds/nebula_unliberated.png"/>
  <property name="Liberation Encounter" value="/server/mods/ColonelViruses"/>
  <property name="Music" value="/server/assets/music/mission.ogg"/>
  <property name="Name" value="NebulaArea1"/>
  <property name="Short Name" value="Nebula1"/>
  <property name="Target Phase" type="int" value="40"/>
 </properties>
 <tileset firstgid="1" source="../assets/tiles/panel_base.tsx"/>
 <tileset firstgid="4" source="../assets/liberations/tiles/panels.tsx"/>
 <tileset firstgid="46" source="../assets/tiles/walkable_space.tsx"/>
 <tileset firstgid="52" source="../assets/liberations/tiles/collision.tsx"/>
 <tileset firstgid="53" source="../assets/tiles/nebula1_unliberated.tsx"/>
 <layer id="1" name="Tile Layer 1" width="24" height="23">
  <data encoding="csv">
0,0,46,0,0,0,0,0,0,0,0,0,0,0,0,0,0,0,0,0,0,0,0,0,
0,0,46,0,0,0,0,0,0,0,0,0,0,0,0,0,0,0,0,0,0,0,0,0,
0,46,46,46,0,0,0,0,0,0,0,0,0,0,0,0,0,0,0,0,0,0,0,0,
46,46,46,46,46,0,0,0,0,0,0,0,0,0,0,0,0,0,0,0,0,0,0,0,
0,46,46,46,0,0,0,0,0,0,0,0,0,0,0,0,0,0,0,0,0,0,0,0,
0,0,46,0,0,0,0,0,0,0,0,0,0,0,0,0,0,0,0,0,0,0,0,0,
0,46,46,46,0,0,0,0,0,0,0,0,0,0,0,0,0,0,0,0,0,0,0,0,
0,46,46,46,46,0,0,0,0,0,0,0,0,0,0,0,0,0,0,0,0,0,0,0,
0,46,46,46,46,46,0,0,0,0,0,46,0,0,0,0,46,0,0,0,0,0,0,0,
0,0,46,46,46,46,46,46,46,46,46,46,46,46,46,46,46,46,0,0,0,0,0,0,
0,0,0,46,46,46,46,46,46,46,46,46,46,46,46,46,46,46,0,0,0,0,0,0,
0,0,0,0,46,46,46,46,46,46,46,46,46,46,46,46,46,46,0,0,0,0,0,0,
0,0,0,0,46,46,46,46,46,46,46,0,0,0,0,0,0,0,0,0,0,0,0,0,
0,0,0,0,46,46,46,46,46,46,46,0,0,46,0,0,46,0,0,0,0,0,0,0,
0,0,0,0,46,46,46,46,46,46,46,46,46,46,46,46,46,46,0,0,0,0,0,0,
0,0,0,0,46,46,46,46,46,46,46,46,46,46,46,46,46,46,0,0,0,0,0,0,
0,0,0,0,46,46,46,0,0,46,46,46,46,46,46,46,46,46,0,0,0,0,0,0,
0,0,0,46,46,46,46,0,0,46,46,46,46,46,46,46,46,46,0,0,0,0,0,0,
0,0,0,0,46,46,46,0,46,46,46,46,46,46,46,46,46,46,0,0,0,0,0,0,
0,0,0,0,46,46,46,0,0,46,46,46,46,46,46,46,46,46,0,0,0,0,0,0,
0,0,0,0,46,46,46,0,46,46,46,46,46,46,46,46,46,46,46,0,0,46,46,46,
0,0,0,46,46,46,46,0,0,46,46,46,46,46,46,46,46,46,46,46,46,46,46,46,
0,0,0,0,46,46,46,0,0,46,46,46,46,46,46,46,46,46,46,0,0,46,46,46
</data>
 </layer>
 <objectgroup id="2" name="Object Layer 1">
  <object id="13" type="Dark Panel" gid="4" x="160" y="576" width="50" height="30"/>
  <object id="15" type="Dark Panel" gid="4" x="416" y="512" width="50" height="30"/>
  <object id="18" type="Dark Panel" gid="4" x="160" y="704" width="50" height="30"/>
  <object id="19" type="Dark Panel" gid="4" x="128" y="704" width="50" height="30"/>
  <object id="20" type="Dark Panel" gid="4" x="416" y="448" width="50" height="30"/>
  <object id="21" type="Dark Panel" gid="4" x="384" y="352" width="50" height="30"/>
  <object id="22" type="Item Panel" gid="5" x="544" y="320" width="50" height="30">
   <properties>
    <property name="Gate Key" value="1"/>
    <property name="Next Point" type="object" value="243"/>
    <property name="Specific Loot" value="KEY"/>
   </properties>
  </object>
  <object id="23" type="Item Panel" gid="5" x="192" y="640" width="50" height="30"/>
  <object id="24" type="Dark Panel" gid="4" x="128" y="512" width="50" height="30"/>
  <object id="25" type="Dark Panel" gid="4" x="448" y="352" width="50" height="30"/>
  <object id="26" type="Dark Panel" gid="4" x="128" y="640" width="50" height="30"/>
  <object id="27" type="Dark Panel" gid="4" x="160" y="640" width="50" height="30"/>
  <object id="28" type="Item Panel" gid="5" x="256" y="480" width="50" height="30"/>
  <object id="29" type="Dark Panel" gid="4" x="288" y="672" width="50" height="30"/>
  <object id="30" type="Dark Panel" gid="4" x="448" y="704" width="50" height="30"/>
  <object id="31" type="Item Panel" gid="5" x="96" y="672" width="50" height="30"/>
  <object id="33" type="Item Panel" gid="5" x="224" y="480" width="50" height="30"/>
  <object id="34" type="Dark Panel" gid="4" x="128" y="672" width="50" height="30"/>
  <object id="35" type="Dark Panel" gid="4" x="320" y="672" width="50" height="30"/>
  <object id="36" type="Dark Panel" gid="4" x="160" y="544" width="50" height="30"/>
  <object id="37" type="Item Panel" gid="5" x="224" y="288" width="50" height="30"/>
  <object id="38" type="Dark Panel" gid="4" x="512" y="704" width="50" height="30"/>
  <object id="39" type="Dark Panel" gid="4" x="320" y="640" width="50" height="30"/>
  <object id="40" type="Dark Panel" gid="4" x="448" y="608" width="50" height="30"/>
  <object id="41" type="Dark Panel" gid="4" x="352" y="640" width="50" height="30"/>
  <object id="42" type="Dark Panel" gid="4" x="512" y="576" width="50" height="30"/>
  <object id="43" type="Dark Hole" gid="6" x="480" y="320" width="50" height="30">
   <properties>
    <property name="Direction" value="Up Left"/>
    <property name="Encounter" value="/server/mods/BigBrute"/>
    <property name="Next Turn" type="object" value="147"/>
    <property name="Spawns" value="BigBrute"/>
   </properties>
  </object>
  <object id="44" type="Dark Panel" gid="4" x="384" y="640" width="50" height="30"/>
  <object id="45" type="Item Panel" gid="5" x="544" y="352" width="50" height="30"/>
  <object id="47" type="Dark Panel" gid="4" x="448" y="576" width="50" height="30"/>
  <object id="48" type="Dark Panel" gid="4" x="448" y="512" width="50" height="30"/>
  <object id="49" type="Dark Panel" gid="4" x="480" y="544" width="50" height="30"/>
  <object id="50" type="Dark Panel" gid="4" x="416" y="608" width="50" height="30"/>
  <object id="51" type="Dark Panel" gid="4" x="64" y="96" width="50" height="30">
   <properties>
    <property name="Boss" value="scripts/main/custom_enemies/colonel"/>
    <property name="Direction" value="Down Left"/>
    <property name="Encounter" value="/server/mods/Colonel"/>
    <property name="Next Turn" type="object" value="237"/>
    <property name="Rank" value="Omega"/>
   </properties>
  </object>
  <object id="57" name="Spawn Point" x="624" y="688">
   <properties>
    <property name="Direction" value="Up Left"/>
    <property name="Next Point" type="object" value="86"/>
   </properties>
   <point/>
  </object>
  <object id="72" type="Bonus Panel" gid="8" x="256" y="640" width="50" height="30"/>
  <object id="73" type="Indestructible Panel" gid="7" x="32" y="96" width="50" height="30"/>
  <object id="74" type="Indestructible Panel" gid="7" x="96" y="128" width="50" height="30"/>
  <object id="75" type="Indestructible Panel" gid="7" x="96" y="96" width="50" height="30"/>
  <object id="76" type="Indestructible Panel" gid="7" x="128" y="96" width="50" height="30"/>
  <object id="77" type="Indestructible Panel" gid="7" x="64" y="64" width="50" height="30"/>
  <object id="78" type="Indestructible Panel" gid="7" x="32" y="64" width="50" height="30"/>
  <object id="79" type="Indestructible Panel" gid="7" x="64" y="128" width="50" height="30"/>
  <object id="81" type="Indestructible Panel" gid="7" x="96" y="64" width="50" height="30"/>
  <object id="82" type="Bonus Panel" gid="8" x="416" y="416" width="50" height="30"/>
  <object id="85" type="Dark Hole" gid="6" x="192" y="704" width="50" height="30">
   <properties>
    <property name="Direction" value="Up Right"/>
    <property name="Encounter" value="/server/mods/TinHawk"/>
    <property name="Next Turn" type="object" value="114"/>
    <property name="Position" type="object" value="263"/>
    <property name="Spawns" value="TinHawk"/>
   </properties>
  </object>
  <object id="86" x="664" y="688">
   <properties>
    <property name="Direction" value="Up Left"/>
    <property name="Next Point" type="object" value="87"/>
   </properties>
   <point/>
  </object>
  <object id="87" x="696" y="688">
   <properties>
    <property name="Direction" value="Up Left"/>
    <property name="Next Point" type="object" value="240"/>
   </properties>
   <point/>
  </object>
  <object id="92" type="Abandon Point" x="720" y="688">
   <point/>
  </object>
  <object id="95" type="Dark Panel" gid="4" x="160" y="672" width="50" height="30"/>
  <object id="97" type="Dark Panel" gid="4" x="512" y="640" width="50" height="30"/>
  <object id="98" type="Dark Panel" gid="4" x="448" y="480" width="50" height="30"/>
  <object id="101" type="Dark Panel" gid="4" x="352" y="608" width="50" height="30"/>
  <object id="102" type="Dark Panel" gid="4" x="352" y="576" width="50" height="30"/>
  <object id="103" type="Dark Panel" gid="4" x="320" y="608" width="50" height="30"/>
  <object id="104" type="Dark Panel" gid="4" x="416" y="576" width="50" height="30"/>
  <object id="106" type="Dark Panel" gid="4" x="416" y="544" width="50" height="30"/>
  <object id="107" type="Dark Panel" gid="4" x="384" y="512" width="50" height="30"/>
  <object id="108" type="Dark Panel" gid="4" x="320" y="544" width="50" height="30"/>
  <object id="109" type="Dark Panel" gid="4" x="128" y="384" width="50" height="30"/>
  <object id="110" type="Dark Panel" gid="4" x="384" y="544" width="50" height="30"/>
  <object id="113" type="Item Panel" gid="5" x="256" y="576" width="50" height="30"/>
  <object id="114" type="Dark Hole" gid="6" x="384" y="480" width="50" height="30">
   <properties>
    <property name="Direction" value="Down Left"/>
    <property name="Encounter" value="/server/mods/Bladia"/>
    <property name="Next Turn" type="object" value="43"/>
    <property name="Position" type="object" value="151"/>
    <property name="Spawns" value="Bladia"/>
   </properties>
  </object>
  <object id="115" type="Dark Panel" gid="4" x="448" y="320" width="50" height="30"/>
  <object id="116" type="Dark Panel" gid="4" x="480" y="288" width="50" height="30"/>
  <object id="117" type="Dark Panel" gid="4" x="480" y="672" width="50" height="30"/>
  <object id="118" type="Dark Panel" gid="4" x="512" y="320" width="50" height="30"/>
  <object id="119" type="Dark Panel" gid="4" x="32" y="256" width="50" height="30"/>
  <object id="120" type="Dark Panel" gid="4" x="32" y="192" width="50" height="30"/>
  <object id="121" type="Dark Panel" gid="4" x="32" y="224" width="50" height="30"/>
  <object id="122" type="Dark Panel" gid="4" x="96" y="256" width="50" height="30"/>
  <object id="123" type="Dark Panel" gid="4" x="192" y="320" width="50" height="30"/>
  <object id="124" type="Dark Panel" gid="4" x="192" y="384" width="50" height="30"/>
  <object id="125" type="Dark Panel" gid="4" x="192" y="352" width="50" height="30"/>
  <object id="126" type="Dark Panel" gid="4" x="288" y="288" width="50" height="30"/>
  <object id="127" type="Dark Panel" gid="4" x="128" y="352" width="50" height="30"/>
  <object id="128" type="Dark Panel" gid="4" x="224" y="352" width="50" height="30"/>
  <object id="129" type="Dark Panel" gid="4" x="96" y="224" width="50" height="30"/>
  <object id="130" type="Dark Panel" gid="4" x="224" y="320" width="50" height="30"/>
  <object id="131" type="Dark Panel" gid="4" x="512" y="672" width="50" height="30"/>
  <object id="132" type="Dark Panel" gid="4" x="160" y="288" width="50" height="30"/>
  <object id="133" type="Dark Panel" gid="4" x="480" y="608" width="50" height="30"/>
  <object id="134" type="Dark Panel" gid="4" x="96" y="192" width="50" height="30"/>
  <object id="135" type="Dark Panel" gid="4" x="448" y="288" width="50" height="30"/>
  <object id="136" type="Dark Panel" gid="4" x="64" y="192" width="50" height="30"/>
  <object id="137" type="Dark Panel" gid="4" x="512" y="288" width="50" height="30"/>
  <object id="138" type="Dark Panel" gid="4" x="512" y="352" width="50" height="30"/>
  <object id="139" type="Dark Panel" gid="4" x="416" y="320" width="50" height="30"/>
  <object id="141" type="Dark Panel" gid="4" x="288" y="320" width="50" height="30"/>
  <object id="142" type="Dark Panel" gid="4" x="64" y="256" width="50" height="30"/>
  <object id="143" type="Bonus Panel" gid="8" x="352" y="256" width="50" height="30"/>
  <object id="146" type="Dark Panel" gid="4" x="160" y="608" width="50" height="30"/>
  <object id="147" type="Guardian" x="464" y="624">
   <properties>
    <property name="Direction" value="Down Right"/>
    <property name="Encounter" value="/server/mods/BigBrute"/>
    <property name="Spawns" value="BigBrute"/>
   </properties>
   <point/>
  </object>
  <object id="151" x="432" y="496">
   <point/>
  </object>
  <object id="153" type="Dark Panel" gid="4" x="448" y="448" width="50" height="30"/>
  <object id="154" type="Dark Panel" gid="4" x="160" y="448" width="50" height="30"/>
  <object id="156" type="Gate Panel" gid="10" x="256" y="320" width="50" height="30">
   <properties>
    <property name="Gate Key" value="2"/>
   </properties>
  </object>
  <object id="162" type="Item Panel" gid="5" x="352" y="512" width="50" height="30"/>
  <object id="164" type="Item Panel" gid="5" x="352" y="704" width="50" height="30"/>
  <object id="165" type="Item Panel" gid="5" x="448" y="544" width="50" height="30"/>
  <object id="167" type="Item Panel" gid="5" x="480" y="640" width="50" height="30"/>
  <object id="171" type="Dark Panel" gid="4" x="128" y="448" width="50" height="30"/>
  <object id="172" type="Dark Panel" gid="4" x="128" y="576" width="50" height="30"/>
  <object id="173" type="Dark Panel" gid="4" x="192" y="608" width="50" height="30"/>
  <object id="174" type="Dark Panel" gid="4" x="192" y="512" width="50" height="30"/>
  <object id="175" type="Dark Panel" gid="4" x="416" y="480" width="50" height="30"/>
  <object id="176" type="Dark Panel" gid="4" x="192" y="672" width="50" height="30"/>
  <object id="178" type="Dark Panel" gid="4" x="416" y="672" width="50" height="30"/>
  <object id="179" type="Dark Panel" gid="4" x="288" y="608" width="50" height="30"/>
  <object id="180" type="Dark Panel" gid="4" x="352" y="544" width="50" height="30"/>
  <object id="181" type="Dark Panel" gid="4" x="288" y="544" width="50" height="30"/>
  <object id="182" type="Dark Panel" gid="4" x="384" y="704" width="50" height="30"/>
  <object id="183" type="Dark Panel" gid="4" x="160" y="384" width="50" height="30"/>
  <object id="184" type="Dark Panel" gid="4" x="384" y="448" width="50" height="30"/>
  <object id="185" type="Item Panel" gid="5" x="320" y="480" width="50" height="30"/>
  <object id="186" type="Item Panel" gid="5" x="288" y="480" width="50" height="30"/>
  <object id="187" type="Item Panel" gid="5" x="256" y="448" width="50" height="30"/>
  <object id="188" type="Item Panel" gid="5" x="160" y="480" width="50" height="30"/>
  <object id="194" type="Item Panel" gid="5" x="320" y="448" width="50" height="30"/>
  <object id="195" type="Item Panel" gid="5" x="288" y="448" width="50" height="30"/>
  <object id="197" type="Item Panel" gid="5" x="512" y="416" width="50" height="30"/>
  <object id="198" type="Item Panel" gid="5" x="512" y="256" width="50" height="30"/>
  <object id="202" type="Dark Panel" gid="4" x="352" y="448" width="50" height="30"/>
  <object id="203" type="Gate Panel" gid="9" x="96" y="288" width="50" height="30">
   <properties>
    <property name="Gate Key" value="1"/>
   </properties>
  </object>
  <object id="204" type="Gate Panel" gid="9" x="64" y="288" width="50" height="30">
   <properties>
    <property name="Gate Key" value="1"/>
   </properties>
  </object>
  <object id="205" type="Gate Panel" gid="9" x="128" y="224" width="50" height="30">
   <properties>
    <property name="Gate Key" value="1"/>
   </properties>
  </object>
  <object id="206" type="Item Panel" gid="5" x="192" y="480" width="50" height="30"/>
  <object id="207" type="Item Panel" gid="5" x="96" y="544" width="50" height="30"/>
  <object id="208" type="Item Panel" gid="5" x="192" y="288" width="50" height="30"/>
  <object id="211" type="Dark Panel" gid="4" x="128" y="320" width="50" height="30"/>
  <object id="212" type="Dark Panel" gid="4" x="160" y="320" width="50" height="30"/>
  <object id="213" type="Dark Hole" gid="6" x="160" y="352" width="50" height="30">
   <properties>
    <property name="Direction" value="Down Left"/>
    <property name="Encounter" value="/server/mods/BigBrute"/>
    <property name="Next Turn" type="object" value="85"/>
    <property name="Position" type="object" value="257"/>
    <property name="Spawns" value="BigBrute"/>
   </properties>
  </object>
  <object id="214" type="Gate Panel" gid="10" x="256" y="288" width="50" height="30">
   <properties>
    <property name="Gate Key" value="2"/>
   </properties>
  </object>
  <object id="215" type="Gate Panel" gid="10" x="256" y="352" width="50" height="30">
   <properties>
    <property name="Gate Key" value="2"/>
   </properties>
  </object>
  <object id="216" type="Dark Panel" gid="4" x="320" y="320" width="50" height="30"/>
  <object id="217" type="Dark Panel" gid="4" x="352" y="288" width="50" height="30"/>
  <object id="218" type="Dark Panel" gid="4" x="320" y="352" width="50" height="30"/>
  <object id="219" type="Dark Panel" gid="4" x="352" y="320" width="50" height="30"/>
  <object id="220" type="Dark Panel" gid="4" x="544" y="608" width="50" height="30"/>
  <object id="221" type="Dark Panel" gid="4" x="480" y="512" width="50" height="30"/>
  <object id="223" type="Item Panel" gid="5" x="544" y="288" width="50" height="30"/>
  <object id="224" type="Item Panel" gid="5" x="416" y="352" width="50" height="30"/>
  <object id="225" type="Item Panel" gid="5" x="288" y="704" width="50" height="30">
   <properties>
    <property name="Gate Key" value="2"/>
    <property name="Next Point" type="object" value="242"/>
    <property name="Specific Loot" value="KEY"/>
   </properties>
  </object>
  <object id="226" type="Dark Panel" gid="4" x="480" y="448" width="50" height="30"/>
  <object id="227" type="Dark Panel" gid="4" x="448" y="640" width="50" height="30"/>
  <object id="228" type="Dark Panel" gid="4" x="512" y="448" width="50" height="30"/>
  <object id="229" type="Dark Panel" gid="4" x="544" y="512" width="50" height="30"/>
  <object id="230" type="Dark Panel" gid="4" x="384" y="288" width="50" height="30"/>
  <object id="231" type="Dark Panel" gid="4" x="480" y="480" width="50" height="30"/>
  <object id="232" type="Dark Panel" gid="4" x="480" y="352" width="50" height="30"/>
  <object id="233" type="Dark Panel" gid="4" x="512" y="512" width="50" height="30"/>
  <object id="234" type="Dark Panel" gid="4" x="544" y="448" width="50" height="30"/>
  <object id="235" type="Dark Panel" gid="4" x="384" y="320" width="50" height="30"/>
  <object id="237" type="Dark Hole" gid="6" x="64" y="224" width="50" height="30">
   <properties>
    <property name="Direction" value="Down Right"/>
    <property name="Encounter" value="/server/mods/Bladia"/>
    <property name="Next Turn" type="object" value="213"/>
    <property name="Position" type="object" value="238"/>
    <property name="Spawns" value="Bladia"/>
   </properties>
  </object>
  <object id="238" x="112" y="272">
   <point/>
  </object>
  <object id="240" x="688" y="720">
   <properties>
    <property name="Direction" value="Up Left"/>
    <property name="Next Point" type="object" value="241"/>
   </properties>
   <point/>
  </object>
  <object id="241" x="688" y="656">
   <properties>
    <property name="Direction" value="Up Left"/>
   </properties>
   <point/>
  </object>
  <object id="242" x="256" y="416">
   <point/>
  </object>
  <object id="243" x="128" y="288">
   <point/>
  </object>
  <object id="244" gid="53" x="-287.5" y="329.5" width="909" height="740"/>
  <object id="246" type="Indestructible Panel" gid="7" x="0" y="96" width="50" height="30"/>
  <object id="247" type="Indestructible Panel" gid="7" x="32" y="128" width="50" height="30"/>
  <object id="248" type="Indestructible Panel" gid="7" x="64" y="160" width="50" height="30"/>
  <object id="249" type="Gate Panel" gid="9" x="128" y="256" width="50" height="30">
   <properties>
    <property name="Gate Key" value="1"/>
   </properties>
  </object>
  <object id="250" type="Gate Panel" gid="9" x="128" y="288" width="50" height="30">
   <properties>
    <property name="Gate Key" value="1"/>
   </properties>
  </object>
  <object id="251" type="Gate Panel" gid="10" x="192" y="416" width="50" height="30">
   <properties>
    <property name="Gate Key" value="2"/>
   </properties>
  </object>
  <object id="252" type="Gate Panel" gid="10" x="160" y="416" width="50" height="30">
   <properties>
    <property name="Gate Key" value="2"/>
   </properties>
  </object>
  <object id="253" type="Gate Panel" gid="10" x="128" y="416" width="50" height="30">
   <properties>
    <property name="Gate Key" value="2"/>
   </properties>
  </object>
  <object id="254" type="Gate Panel" gid="10" x="224" y="416" width="50" height="30">
   <properties>
    <property name="Gate Key" value="2"/>
   </properties>
  </object>
  <object id="255" type="Gate Panel" gid="10" x="256" y="384" width="50" height="30">
   <properties>
    <property name="Gate Key" value="2"/>
   </properties>
  </object>
  <object id="256" type="Gate Panel" gid="10" x="256" y="416" width="50" height="30">
   <properties>
    <property name="Gate Key" value="2"/>
   </properties>
  </object>
  <object id="257" x="208" y="336">
   <point/>
  </object>
  <object id="258" type="Dark Panel" gid="4" x="288" y="384" width="50" height="30"/>
  <object id="259" type="Dark Panel" gid="4" x="288" y="352" width="50" height="30"/>
  <object id="260" type="Dark Panel" gid="4" x="288" y="416" width="50" height="30"/>
  <object id="261" type="Dark Panel" gid="4" x="352" y="480" width="50" height="30"/>
  <object id="262" type="Bonus Panel" gid="8" x="128" y="608" width="50" height="30"/>
  <object id="263" x="176" y="688">
   <point/>
  </object>
  <object id="264" type="Abandon Point" x="720" y="720">
   <point/>
  </object>
  <object id="265" type="Abandon Point" x="752" y="720">
   <point/>
  </object>
  <object id="266" type="Abandon Point" x="752" y="688">
   <point/>
  </object>
  <object id="267" type="Abandon Point" x="752" y="656">
   <point/>
  </object>
  <object id="268" type="Abandon Point" x="720" y="656">
   <point/>
  </object>
 </objectgroup>
</map>
