<?xml version="1.0" encoding="UTF-8"?>
<map version="1.10" tiledversion="1.12.2" orientation="isometric" renderorder="right-down" width="28" height="21" tilewidth="64" tileheight="32" infinite="0" nextlayerid="3" nextobjectid="314">
 <properties>
  <property name="Background Animation" value="/server/assets/backgrounds/nebula.animation"/>
  <property name="Background Texture" value="/server/assets/backgrounds/nebula_unliberated.png"/>
  <property name="Liberation Encounter" value="/server/mods/CosmoManViruses"/>
  <property name="Music" value="/server/assets/music/mission.ogg"/>
  <property name="Name" value="NebulaArea5"/>
  <property name="Short Name" value="Nebula5"/>
  <property name="Target Phase" type="int" value="60"/>
 </properties>
 <tileset firstgid="1" source="../assets/tiles/panel_base.tsx"/>
 <tileset firstgid="4" source="../assets/liberations/tiles/panels.tsx"/>
 <tileset firstgid="52" source="../assets/tiles/walkable_space.tsx"/>
 <tileset firstgid="58" source="../assets/liberations/tiles/collision.tsx"/>
 <tileset firstgid="59" source="../assets/tiles/nebula3_unliberated.tsx"/>
 <tileset firstgid="60" source="../assets/tiles/nebula5_unliberated.tsx"/>
 <layer id="1" name="Tile Layer 1" width="28" height="21">
  <data encoding="csv">
0,0,0,0,0,0,52,52,0,0,0,0,0,0,0,0,0,0,0,0,0,0,0,0,0,0,0,0,
0,0,0,0,0,0,52,52,52,52,0,0,0,0,0,0,0,0,0,0,0,0,0,0,0,0,0,0,
0,0,0,0,0,0,52,52,52,52,52,52,0,0,0,0,0,0,0,0,0,0,0,0,0,0,0,0,
0,0,0,0,0,0,52,52,52,52,52,52,52,52,0,0,0,0,0,0,0,0,0,0,0,0,0,0,
0,0,0,0,0,0,52,52,52,52,52,52,52,52,52,52,52,0,0,0,0,0,0,0,0,0,0,0,
0,0,0,0,0,0,52,52,52,52,52,52,52,52,52,52,52,0,0,0,0,0,0,0,0,0,0,0,
0,0,0,0,0,0,52,52,52,52,52,52,52,52,52,52,52,0,0,0,0,0,0,0,0,0,0,0,
0,0,0,0,0,0,52,52,52,52,52,52,52,52,52,52,52,52,0,52,52,52,0,0,0,0,0,0,
0,0,0,0,0,0,52,52,52,52,52,52,52,52,52,52,52,52,52,52,52,52,52,52,0,0,0,0,
0,0,0,0,0,0,52,52,52,52,52,52,52,52,52,52,52,52,52,52,52,52,52,52,52,52,0,0,
2147483704,52,52,52,52,52,52,52,52,52,52,52,52,52,52,52,52,52,52,52,52,52,0,52,52,52,52,1073741880,
0,0,0,0,0,0,52,52,52,52,52,52,52,52,52,52,52,52,52,52,52,0,0,0,52,52,0,0,
0,0,0,0,0,0,52,52,52,52,52,52,52,52,52,52,52,52,52,52,0,0,0,0,0,0,0,0,
0,0,0,0,0,0,52,52,52,52,52,52,52,52,52,52,52,0,0,0,0,0,0,0,0,0,0,0,
0,0,0,0,0,0,52,52,52,52,52,52,52,52,52,52,52,0,0,0,0,0,0,0,0,0,0,0,
0,0,0,0,0,0,52,52,52,52,52,52,52,52,52,52,52,0,0,0,0,0,0,0,0,0,0,0,
0,0,0,0,0,0,52,52,52,52,52,52,52,52,52,52,52,0,0,0,0,0,0,0,0,0,0,0,
0,0,0,0,0,0,52,52,52,52,52,52,52,52,0,0,0,0,0,0,0,0,0,0,0,0,0,0,
0,0,0,0,0,0,52,52,52,52,52,52,0,0,0,0,0,0,0,0,0,0,0,0,0,0,0,0,
0,0,0,0,0,0,52,52,52,52,0,0,0,0,0,0,0,0,0,0,0,0,0,0,0,0,0,0,
0,0,0,0,0,0,52,52,0,0,0,0,0,0,0,0,0,0,0,0,0,0,0,0,0,0,0,0
</data>
 </layer>
 <objectgroup id="2" name="Object Layer 1">
  <object id="13" type="Dark Panel" gid="4" x="224" y="576" width="50" height="30"/>
  <object id="15" type="Dark Panel" gid="4" x="480" y="480" width="50" height="30"/>
  <object id="16" type="Dark Panel" gid="4" x="416" y="416" width="50" height="30"/>
  <object id="18" type="Dark Panel" gid="4" x="448" y="256" width="50" height="30"/>
  <object id="19" type="Dark Panel" gid="4" x="448" y="288" width="50" height="30"/>
  <object id="20" type="Dark Panel" gid="4" x="416" y="512" width="50" height="30"/>
  <object id="21" type="Dark Panel" gid="4" x="480" y="512" width="50" height="30"/>
  <object id="22" name="Key 1" type="Item Panel" gid="5" x="384" y="320" width="50" height="30">
   <properties>
    <property name="Gate Key" value="1"/>
    <property name="Next Point" type="object" value="243"/>
    <property name="Specific Loot" value="KEY"/>
   </properties>
  </object>
  <object id="24" type="Dark Panel" gid="4" x="384" y="416" width="50" height="30"/>
  <object id="25" type="Dark Panel" gid="4" x="448" y="352" width="50" height="30"/>
  <object id="26" type="Dark Panel" gid="4" x="256" y="416" width="50" height="30"/>
  <object id="27" type="Dark Panel" gid="4" x="224" y="384" width="50" height="30"/>
  <object id="29" type="Dark Panel" gid="4" x="480" y="128" width="50" height="30"/>
  <object id="30" type="Dark Panel" gid="4" x="288" y="32" width="50" height="30"/>
  <object id="35" type="Dark Panel" gid="4" x="480" y="224" width="50" height="30"/>
  <object id="37" type="Item Panel" gid="5" x="224" y="224" width="50" height="30"/>
  <object id="38" type="Dark Panel" gid="4" x="384" y="352" width="50" height="30"/>
  <object id="39" type="Dark Panel" gid="4" x="512" y="256" width="50" height="30"/>
  <object id="40" type="Dark Panel" gid="4" x="640" y="320" width="50" height="30"/>
  <object id="41" type="Dark Panel" gid="4" x="544" y="256" width="50" height="30"/>
  <object id="42" type="Dark Panel" gid="4" x="704" y="288" width="50" height="30"/>
  <object id="43" type="Dark Hole" gid="6" x="448" y="128" width="50" height="30">
   <properties>
    <property name="Direction" value="Down Right"/>
    <property name="Encounter" value="/server/mods/Bladia"/>
    <property name="Next Turn" type="object" value="114"/>
    <property name="Position" type="object" value="151"/>
    <property name="Rank" value="V6"/>
    <property name="Spawns" value="Bladia"/>
   </properties>
  </object>
  <object id="44" type="Dark Panel" gid="4" x="672" y="320" width="50" height="30"/>
  <object id="45" type="Item Panel" gid="5" x="512" y="480" width="50" height="30"/>
  <object id="47" type="Dark Panel" gid="4" x="672" y="256" width="50" height="30"/>
  <object id="48" type="Dark Panel" gid="4" x="640" y="224" width="50" height="30"/>
  <object id="49" type="Dark Panel" gid="4" x="704" y="256" width="50" height="30"/>
  <object id="50" type="Dark Panel" gid="4" x="640" y="256" width="50" height="30"/>
  <object id="51" type="Dark Panel" gid="4" x="224" y="320" width="50" height="30">
   <properties>
    <property name="Boss" value="scripts/main/custom_enemies/cosmoman"/>
    <property name="Direction" value="Down Right"/>
    <property name="Encounter" value="/server/mods/CosmoMan"/>
    <property name="Next Turn" type="object" value="237"/>
    <property name="Rank" value="Omega"/>
   </properties>
  </object>
  <object id="57" name="Spawn Point" x="784" y="336">
   <properties>
    <property name="Direction" value="Up Left"/>
    <property name="Next Point" type="object" value="86"/>
   </properties>
   <point/>
  </object>
  <object id="72" type="Bonus Panel" gid="8" x="224" y="0" width="50" height="30"/>
  <object id="73" type="Indestructible Panel" gid="7" x="256" y="288" width="50" height="30"/>
  <object id="74" type="Indestructible Panel" gid="7" x="256" y="320" width="50" height="30"/>
  <object id="75" type="Indestructible Panel" gid="7" x="256" y="352" width="50" height="30"/>
  <object id="76" type="Indestructible Panel" gid="7" x="224" y="352" width="50" height="30"/>
  <object id="77" type="Indestructible Panel" gid="7" x="192" y="352" width="50" height="30"/>
  <object id="78" type="Indestructible Panel" gid="7" x="192" y="320" width="50" height="30"/>
  <object id="79" type="Indestructible Panel" gid="7" x="224" y="288" width="50" height="30"/>
  <object id="81" type="Indestructible Panel" gid="7" x="192" y="288" width="50" height="30"/>
  <object id="82" type="Bonus Panel" gid="8" x="224" y="640" width="50" height="30"/>
  <object id="85" type="Dark Hole" gid="6" x="256" y="128" width="50" height="30">
   <properties>
    <property name="Direction" value="Down Right"/>
    <property name="Encounter" value="/server/mods/TinHawk"/>
    <property name="Next Turn" type="object" value="147"/>
    <property name="Position" type="object" value="306"/>
    <property name="Rank" value="V6"/>
    <property name="Spawns" value="TinHawk"/>
   </properties>
  </object>
  <object id="86" x="787" y="307">
   <properties>
    <property name="Direction" value="Up Left"/>
    <property name="Next Point" type="object" value="87"/>
   </properties>
   <point/>
  </object>
  <object id="87" x="784" y="368">
   <properties>
    <property name="Direction" value="Up Left"/>
    <property name="Next Point" type="object" value="240"/>
   </properties>
   <point/>
  </object>
  <object id="92" name="Abandon Point" x="880" y="336">
   <point/>
  </object>
  <object id="95" type="Dark Panel" gid="4" x="352" y="320" width="50" height="30"/>
  <object id="96" type="Dark Panel" gid="4" x="256" y="576" width="50" height="30"/>
  <object id="97" type="Dark Panel" gid="4" x="448" y="384" width="50" height="30"/>
  <object id="101" type="Dark Panel" gid="4" x="576" y="256" width="50" height="30"/>
  <object id="102" type="Dark Panel" gid="4" x="352" y="288" width="50" height="30"/>
  <object id="104" type="Dark Panel" gid="4" x="672" y="288" width="50" height="30"/>
  <object id="105" type="Dark Panel" gid="4" x="320" y="480" width="50" height="30"/>
  <object id="106" type="Dark Panel" gid="4" x="416" y="544" width="50" height="30"/>
  <object id="107" type="Dark Panel" gid="4" x="352" y="448" width="50" height="30"/>
  <object id="108" type="Dark Panel" gid="4" x="352" y="480" width="50" height="30"/>
  <object id="109" type="Dark Panel" gid="4" x="448" y="416" width="50" height="30"/>
  <object id="110" type="Dark Panel" gid="4" x="512" y="416" width="50" height="30"/>
  <object id="114" type="Dark Hole" gid="6" x="544" y="320" width="50" height="30">
   <properties>
    <property name="Direction" value="Down Right"/>
    <property name="Encounter" value="/server/mods/TinHawk"/>
    <property name="Next Turn" type="object" value="307"/>
    <property name="Position" type="object" value="308"/>
    <property name="Rank" value="V6"/>
    <property name="Spawns" value="TinHawk"/>
   </properties>
  </object>
  <object id="115" type="Dark Panel" gid="4" x="224" y="64" width="50" height="30"/>
  <object id="116" type="Dark Panel" gid="4" x="256" y="64" width="50" height="30"/>
  <object id="117" type="Dark Panel" gid="4" x="544" y="384" width="50" height="30"/>
  <object id="118" type="Dark Panel" gid="4" x="224" y="32" width="50" height="30"/>
  <object id="119" type="Dark Panel" gid="4" x="288" y="416" width="50" height="30"/>
  <object id="120" type="Dark Panel" gid="4" x="288" y="384" width="50" height="30"/>
  <object id="121" type="Dark Panel" gid="4" x="672" y="224" width="50" height="30"/>
  <object id="122" type="Dark Panel" gid="4" x="192" y="256" width="50" height="30"/>
  <object id="123" type="Dark Panel" gid="4" x="288" y="128" width="50" height="30"/>
  <object id="124" type="Dark Panel" gid="4" x="480" y="384" width="50" height="30"/>
  <object id="125" type="Dark Panel" gid="4" x="256" y="256" width="50" height="30"/>
  <object id="126" type="Dark Panel" gid="4" x="288" y="256" width="50" height="30"/>
  <object id="127" type="Dark Panel" gid="4" x="288" y="320" width="50" height="30"/>
  <object id="128" type="Dark Panel" gid="4" x="224" y="256" width="50" height="30"/>
  <object id="129" type="Dark Panel" gid="4" x="192" y="224" width="50" height="30"/>
  <object id="130" type="Dark Panel" gid="4" x="256" y="224" width="50" height="30"/>
  <object id="132" type="Dark Panel" gid="4" x="288" y="352" width="50" height="30"/>
  <object id="133" type="Dark Panel" gid="4" x="480" y="256" width="50" height="30"/>
  <object id="134" type="Dark Panel" gid="4" x="192" y="192" width="50" height="30"/>
  <object id="135" type="Dark Panel" gid="4" x="512" y="224" width="50" height="30"/>
  <object id="136" type="Dark Panel" gid="4" x="224" y="192" width="50" height="30"/>
  <object id="137" type="Dark Panel" gid="4" x="192" y="64" width="50" height="30"/>
  <object id="138" type="Dark Panel" gid="4" x="352" y="192" width="50" height="30"/>
  <object id="139" type="Dark Panel" gid="4" x="576" y="384" width="50" height="30"/>
  <object id="141" type="Dark Panel" gid="4" x="384" y="224" width="50" height="30"/>
  <object id="142" type="Dark Panel" gid="4" x="288" y="288" width="50" height="30"/>
  <object id="147" name="BlizzardMan" type="Guardian" x="368" y="336">
   <properties>
    <property name="Direction" value="Down Right"/>
    <property name="Encounter" value="/server/mods/BlizzardMan"/>
    <property name="Next Turn" type="object" value="43"/>
    <property name="Rank" value="Omega"/>
    <property name="Spawns" value="BlizzardMan"/>
   </properties>
   <point/>
  </object>
  <object id="151" x="304" y="80">
   <point/>
  </object>
  <object id="153" type="Dark Panel" gid="4" x="448" y="480" width="50" height="30"/>
  <object id="154" type="Dark Panel" gid="4" x="320" y="320" width="50" height="30"/>
  <object id="155" type="Gate Panel" gid="9" x="320" y="288" width="50" height="30">
   <properties>
    <property name="Gate Key" value="1"/>
   </properties>
  </object>
  <object id="156" type="Gate Panel" gid="10" x="416" y="320" width="50" height="30">
   <properties>
    <property name="Gate Key" value="2"/>
   </properties>
  </object>
  <object id="159" type="Gate Panel" gid="9" x="320" y="352" width="50" height="30">
   <properties>
    <property name="Gate Key" value="1"/>
   </properties>
  </object>
  <object id="165" type="Item Panel" gid="5" x="640" y="352" width="50" height="30"/>
  <object id="166" type="Item Panel" gid="5" x="192" y="384" width="50" height="30"/>
  <object id="167" type="Item Panel" gid="5" x="608" y="224" width="50" height="30"/>
  <object id="171" type="Dark Panel" gid="4" x="192" y="416" width="50" height="30"/>
  <object id="172" type="Dark Panel" gid="4" x="192" y="448" width="50" height="30"/>
  <object id="173" type="Dark Panel" gid="4" x="192" y="608" width="50" height="30"/>
  <object id="174" type="Dark Panel" gid="4" x="192" y="576" width="50" height="30"/>
  <object id="175" type="Dark Panel" gid="4" x="416" y="224" width="50" height="30"/>
  <object id="176" type="Dark Panel" gid="4" x="224" y="608" width="50" height="30"/>
  <object id="177" type="Dark Panel" gid="4" x="256" y="608" width="50" height="30"/>
  <object id="178" type="Dark Panel" gid="4" x="288" y="576" width="50" height="30"/>
  <object id="179" type="Dark Panel" gid="4" x="288" y="608" width="50" height="30"/>
  <object id="180" type="Dark Panel" gid="4" x="352" y="544" width="50" height="30"/>
  <object id="181" type="Dark Panel" gid="4" x="352" y="352" width="50" height="30"/>
  <object id="182" type="Dark Panel" gid="4" x="288" y="512" width="50" height="30"/>
  <object id="184" type="Dark Panel" gid="4" x="384" y="288" width="50" height="30"/>
  <object id="186" type="Item Panel" gid="5" x="288" y="480" width="50" height="30"/>
  <object id="193" type="Item Panel" gid="5" x="224" y="416" width="50" height="30"/>
  <object id="202" type="Dark Panel" gid="4" x="384" y="448" width="50" height="30"/>
  <object id="203" type="Gate Panel" gid="9" x="192" y="512" width="50" height="30">
   <properties>
    <property name="Gate Key" value="1"/>
   </properties>
  </object>
  <object id="211" type="Dark Panel" gid="4" x="224" y="448" width="50" height="30"/>
  <object id="212" type="Dark Panel" gid="4" x="256" y="384" width="50" height="30"/>
  <object id="213" type="Dark Hole" gid="6" x="448" y="512" width="50" height="30">
   <properties>
    <property name="Direction" value="Down Right"/>
    <property name="Encounter" value="/server/mods/BigBrute"/>
    <property name="Next Turn" type="object" value="85"/>
    <property name="Position" type="object" value="305"/>
    <property name="Rank" value="V6"/>
    <property name="Spawns" value="BigBrute"/>
   </properties>
  </object>
  <object id="214" type="Gate Panel" gid="10" x="416" y="288" width="50" height="30">
   <properties>
    <property name="Gate Key" value="2"/>
   </properties>
  </object>
  <object id="215" type="Gate Panel" gid="10" x="192" y="128" width="50" height="30">
   <properties>
    <property name="Gate Key" value="2"/>
   </properties>
  </object>
  <object id="216" type="Dark Panel" gid="4" x="288" y="224" width="50" height="30"/>
  <object id="217" type="Dark Panel" gid="4" x="352" y="224" width="50" height="30"/>
  <object id="218" type="Dark Panel" gid="4" x="320" y="160" width="50" height="30"/>
  <object id="220" type="Dark Panel" gid="4" x="192" y="32" width="50" height="30"/>
  <object id="221" type="Dark Panel" gid="4" x="352" y="96" width="50" height="30"/>
  <object id="222" type="Item Panel" gid="5" x="288" y="160" width="50" height="30"/>
  <object id="223" type="Item Panel" gid="5" x="512" y="160" width="50" height="30"/>
  <object id="225" name="Key 2" type="Item Panel" gid="5" x="512" y="512" width="50" height="30">
   <properties>
    <property name="Gate Key" value="2"/>
    <property name="Next Point" type="object" value="299"/>
    <property name="Specific Loot" value="KEY"/>
   </properties>
  </object>
  <object id="226" type="Dark Panel" gid="4" x="480" y="160" width="50" height="30"/>
  <object id="227" type="Dark Panel" gid="4" x="448" y="160" width="50" height="30"/>
  <object id="228" type="Dark Panel" gid="4" x="256" y="32" width="50" height="30"/>
  <object id="229" type="Dark Panel" gid="4" x="416" y="128" width="50" height="30"/>
  <object id="230" type="Dark Panel" gid="4" x="512" y="384" width="50" height="30"/>
  <object id="231" type="Dark Panel" gid="4" x="512" y="320" width="50" height="30"/>
  <object id="232" type="Dark Panel" gid="4" x="416" y="96" width="50" height="30"/>
  <object id="233" type="Dark Panel" gid="4" x="320" y="64" width="50" height="30"/>
  <object id="234" type="Dark Panel" gid="4" x="288" y="64" width="50" height="30"/>
  <object id="235" type="Dark Panel" gid="4" x="352" y="160" width="50" height="30"/>
  <object id="236" type="Gate Panel" gid="10" x="448" y="448" width="50" height="30">
   <properties>
    <property name="Gate Key" value="2"/>
   </properties>
  </object>
  <object id="237" type="Dark Hole" gid="6" x="256" y="512" width="50" height="30">
   <properties>
    <property name="Direction" value="Down Right"/>
    <property name="Encounter" value="/server/mods/BigBrute"/>
    <property name="Next Turn" type="object" value="213"/>
    <property name="Position" type="object" value="238"/>
    <property name="Rank" value="V6"/>
    <property name="Spawns" value="BigBrute"/>
   </properties>
  </object>
  <object id="238" x="368" y="496">
   <point/>
  </object>
  <object id="240" x="811" y="356">
   <properties>
    <property name="Direction" value="Up Left"/>
    <property name="Next Point" type="object" value="241"/>
   </properties>
   <point/>
  </object>
  <object id="241" x="812" y="320">
   <properties>
    <property name="Direction" value="Up Left"/>
   </properties>
   <point/>
  </object>
  <object id="242" x="400" y="336">
   <properties>
    <property name="Next Point" type="object" value="298"/>
   </properties>
   <point/>
  </object>
  <object id="243" x="336" y="336">
   <properties>
    <property name="Next Point" type="object" value="297"/>
   </properties>
   <point/>
  </object>
  <object id="244" gid="60" x="-153.5" y="335.5" width="1082" height="550"/>
  <object id="245" type="Gate Panel" gid="11" x="512" y="192" width="50" height="30">
   <properties>
    <property name="Gate Key" value="3"/>
   </properties>
  </object>
  <object id="246" type="Gate Panel" gid="11" x="480" y="192" width="50" height="30">
   <properties>
    <property name="Gate Key" value="3"/>
   </properties>
  </object>
  <object id="247" type="Gate Panel" gid="11" x="448" y="192" width="50" height="30">
   <properties>
    <property name="Gate Key" value="3"/>
   </properties>
  </object>
  <object id="248" type="Gate Panel" gid="11" x="416" y="192" width="50" height="30">
   <properties>
    <property name="Gate Key" value="3"/>
   </properties>
  </object>
  <object id="249" type="Gate Panel" gid="11" x="416" y="160" width="50" height="30">
   <properties>
    <property name="Gate Key" value="3"/>
   </properties>
  </object>
  <object id="250" type="Gate Panel" gid="11" x="384" y="160" width="50" height="30">
   <properties>
    <property name="Gate Key" value="3"/>
   </properties>
  </object>
  <object id="251" type="Gate Panel" gid="11" x="384" y="128" width="50" height="30">
   <properties>
    <property name="Gate Key" value="3"/>
   </properties>
  </object>
  <object id="252" type="Gate Panel" gid="11" x="320" y="128" width="50" height="30">
   <properties>
    <property name="Gate Key" value="3"/>
   </properties>
  </object>
  <object id="253" type="Gate Panel" gid="11" x="320" y="96" width="50" height="30">
   <properties>
    <property name="Gate Key" value="3"/>
   </properties>
  </object>
  <object id="254" type="Gate Panel" gid="11" x="352" y="128" width="50" height="30">
   <properties>
    <property name="Gate Key" value="3"/>
   </properties>
  </object>
  <object id="255" type="Gate Panel" gid="11" x="256" y="96" width="50" height="30">
   <properties>
    <property name="Gate Key" value="3"/>
   </properties>
  </object>
  <object id="256" type="Gate Panel" gid="11" x="288" y="96" width="50" height="30">
   <properties>
    <property name="Gate Key" value="3"/>
   </properties>
  </object>
  <object id="257" type="Gate Panel" gid="11" x="224" y="96" width="50" height="30">
   <properties>
    <property name="Gate Key" value="3"/>
   </properties>
  </object>
  <object id="258" type="Gate Panel" gid="11" x="224" y="128" width="50" height="30">
   <properties>
    <property name="Gate Key" value="3"/>
   </properties>
  </object>
  <object id="259" type="Gate Panel" gid="11" x="576" y="288" width="50" height="30">
   <properties>
    <property name="Gate Key" value="3"/>
   </properties>
  </object>
  <object id="260" type="Gate Panel" gid="11" x="576" y="320" width="50" height="30">
   <properties>
    <property name="Gate Key" value="3"/>
   </properties>
  </object>
  <object id="261" type="Gate Panel" gid="11" x="576" y="352" width="50" height="30">
   <properties>
    <property name="Gate Key" value="3"/>
   </properties>
  </object>
  <object id="262" type="Gate Panel" gid="11" x="544" y="352" width="50" height="30">
   <properties>
    <property name="Gate Key" value="3"/>
   </properties>
  </object>
  <object id="263" type="Gate Panel" gid="11" x="512" y="352" width="50" height="30">
   <properties>
    <property name="Gate Key" value="3"/>
   </properties>
  </object>
  <object id="264" type="Gate Panel" gid="11" x="480" y="352" width="50" height="30">
   <properties>
    <property name="Gate Key" value="3"/>
   </properties>
  </object>
  <object id="265" type="Gate Panel" gid="11" x="480" y="320" width="50" height="30">
   <properties>
    <property name="Gate Key" value="3"/>
   </properties>
  </object>
  <object id="266" type="Gate Panel" gid="11" x="480" y="288" width="50" height="30">
   <properties>
    <property name="Gate Key" value="3"/>
   </properties>
  </object>
  <object id="267" type="Gate Panel" gid="11" x="512" y="288" width="50" height="30">
   <properties>
    <property name="Gate Key" value="3"/>
   </properties>
  </object>
  <object id="268" type="Gate Panel" gid="11" x="544" y="288" width="50" height="30">
   <properties>
    <property name="Gate Key" value="3"/>
   </properties>
  </object>
  <object id="269" type="Gate Panel" gid="11" x="224" y="160" width="50" height="30">
   <properties>
    <property name="Gate Key" value="3"/>
   </properties>
  </object>
  <object id="270" type="Gate Panel" gid="11" x="256" y="160" width="50" height="30">
   <properties>
    <property name="Gate Key" value="3"/>
   </properties>
  </object>
  <object id="271" type="Gate Panel" gid="11" x="256" y="192" width="50" height="30">
   <properties>
    <property name="Gate Key" value="3"/>
   </properties>
  </object>
  <object id="272" type="Gate Panel" gid="11" x="288" y="192" width="50" height="30">
   <properties>
    <property name="Gate Key" value="3"/>
   </properties>
  </object>
  <object id="273" type="Gate Panel" gid="11" x="320" y="192" width="50" height="30">
   <properties>
    <property name="Gate Key" value="3"/>
   </properties>
  </object>
  <object id="274" type="Gate Panel" gid="10" x="384" y="256" width="50" height="30">
   <properties>
    <property name="Gate Key" value="2"/>
   </properties>
  </object>
  <object id="275" type="Gate Panel" gid="10" x="352" y="256" width="50" height="30">
   <properties>
    <property name="Gate Key" value="2"/>
   </properties>
  </object>
  <object id="276" type="Gate Panel" gid="10" x="416" y="352" width="50" height="30">
   <properties>
    <property name="Gate Key" value="2"/>
   </properties>
  </object>
  <object id="277" type="Gate Panel" gid="10" x="384" y="384" width="50" height="30">
   <properties>
    <property name="Gate Key" value="2"/>
   </properties>
  </object>
  <object id="278" type="Gate Panel" gid="10" x="352" y="384" width="50" height="30">
   <properties>
    <property name="Gate Key" value="2"/>
   </properties>
  </object>
  <object id="279" type="Gate Panel" gid="10" x="512" y="448" width="50" height="30">
   <properties>
    <property name="Gate Key" value="2"/>
   </properties>
  </object>
  <object id="280" type="Gate Panel" gid="10" x="480" y="448" width="50" height="30">
   <properties>
    <property name="Gate Key" value="2"/>
   </properties>
  </object>
  <object id="281" type="Gate Panel" gid="10" x="416" y="448" width="50" height="30">
   <properties>
    <property name="Gate Key" value="2"/>
   </properties>
  </object>
  <object id="282" type="Gate Panel" gid="10" x="416" y="480" width="50" height="30">
   <properties>
    <property name="Gate Key" value="2"/>
   </properties>
  </object>
  <object id="283" type="Gate Panel" gid="10" x="384" y="480" width="50" height="30">
   <properties>
    <property name="Gate Key" value="2"/>
   </properties>
  </object>
  <object id="284" type="Gate Panel" gid="10" x="384" y="512" width="50" height="30">
   <properties>
    <property name="Gate Key" value="2"/>
   </properties>
  </object>
  <object id="285" type="Gate Panel" gid="10" x="352" y="512" width="50" height="30">
   <properties>
    <property name="Gate Key" value="2"/>
   </properties>
  </object>
  <object id="286" type="Gate Panel" gid="10" x="320" y="512" width="50" height="30">
   <properties>
    <property name="Gate Key" value="2"/>
   </properties>
  </object>
  <object id="287" type="Gate Panel" gid="10" x="320" y="544" width="50" height="30">
   <properties>
    <property name="Gate Key" value="2"/>
   </properties>
  </object>
  <object id="288" type="Gate Panel" gid="10" x="288" y="544" width="50" height="30">
   <properties>
    <property name="Gate Key" value="2"/>
   </properties>
  </object>
  <object id="289" type="Gate Panel" gid="10" x="256" y="544" width="50" height="30">
   <properties>
    <property name="Gate Key" value="2"/>
   </properties>
  </object>
  <object id="290" type="Gate Panel" gid="10" x="224" y="544" width="50" height="30">
   <properties>
    <property name="Gate Key" value="2"/>
   </properties>
  </object>
  <object id="291" type="Gate Panel" gid="10" x="224" y="512" width="50" height="30">
   <properties>
    <property name="Gate Key" value="2"/>
   </properties>
  </object>
  <object id="292" type="Gate Panel" gid="10" x="224" y="480" width="50" height="30">
   <properties>
    <property name="Gate Key" value="2"/>
   </properties>
  </object>
  <object id="293" type="Gate Panel" gid="10" x="256" y="480" width="50" height="30">
   <properties>
    <property name="Gate Key" value="2"/>
   </properties>
  </object>
  <object id="294" type="Gate Panel" gid="10" x="256" y="448" width="50" height="30">
   <properties>
    <property name="Gate Key" value="2"/>
   </properties>
  </object>
  <object id="295" type="Gate Panel" gid="10" x="288" y="448" width="50" height="30">
   <properties>
    <property name="Gate Key" value="2"/>
   </properties>
  </object>
  <object id="296" type="Gate Panel" gid="10" x="320" y="448" width="50" height="30">
   <properties>
    <property name="Gate Key" value="2"/>
   </properties>
  </object>
  <object id="297" x="208" y="528">
   <point/>
  </object>
  <object id="298" x="208" y="144">
   <point/>
  </object>
  <object id="299" x="496" y="464">
   <properties>
    <property name="Next Point" type="object" value="242"/>
   </properties>
   <point/>
  </object>
  <object id="300" name="Key 3" type="Item Panel" gid="5" x="512" y="128" width="50" height="30">
   <properties>
    <property name="Gate Key" value="3"/>
    <property name="Next Point" type="object" value="301"/>
    <property name="Specific Loot" value="KEY"/>
   </properties>
  </object>
  <object id="301" x="528" y="208">
   <properties>
    <property name="Next Point" type="object" value="304"/>
   </properties>
   <point/>
  </object>
  <object id="304" x="560" y="336">
   <point/>
  </object>
  <object id="305" x="304" y="592">
   <point/>
  </object>
  <object id="306" x="368" y="176">
   <point/>
  </object>
  <object id="307" name="BigBrute" type="Guardian" x="496" y="400">
   <properties>
    <property name="Direction" value="Down Right"/>
    <property name="Encounter" value="/server/mods/BigBrute"/>
    <property name="Rank" value="V6"/>
    <property name="Spawns" value="BigBrute"/>
   </properties>
   <point/>
  </object>
  <object id="308" x="496" y="272">
   <point/>
  </object>
  <object id="309" name="*Extra Loot" type="Item Panel" gid="5" x="480" y="416" width="50" height="30"/>
  <object id="310" name="*Extra Loot" type="Item Panel" gid="5" x="352" y="416" width="50" height="30"/>
  <object id="311" name="*Extra Loot" type="Item Panel" gid="5" x="384" y="192" width="50" height="30"/>
  <object id="312" name="*Extra Loot" type="Item Panel" gid="5" x="448" y="224" width="50" height="30"/>
  <object id="313" name="*Extra Bonus" type="Bonus Panel" gid="8" x="448" y="320" width="50" height="30"/>
 </objectgroup>
</map>
